Newaita-dark/.DP/32/discord-tray-unread.svg

<svg xmlns="http://www.w3.org/2000/svg" xmlns:xlink="http://www.w3.org/1999/xlink" width="32px" height="32px" viewBox="0 0 32 32" version="1.1">
<g id="surface1">
<path style=" stroke:none;fill-rule:nonzero;fill:rgb(93.333334%,93.333334%,93.333334%);fill-opacity:1;" d="M 12.542969 7.65625 C 10.476562 7.753906 8.425781 8.558594 6.824219 9.839844 C 4.996094 13.472656 3.9375 17.515625 3.914062 21.585938 C 3.753906 23.765625 7.761719 24.621094 10.144531 24.667969 C 11.363281 24.609375 12.207031 23.484375 11.390625 22.957031 C 10.308594 22.574219 8.753906 22.234375 7.980469 21.511719 C 7.132812 20.949219 7.417969 20.382812 7.9375 20.605469 C 10.285156 22.085938 13.054688 22.886719 15.828125 22.917969 C 15.835938 22.917969 15.839844 22.917969 15.847656 22.917969 C 15.855469 22.917969 15.863281 22.917969 15.871094 22.917969 C 18.644531 22.886719 21.414062 22.085938 23.761719 20.605469 C 24.28125 20.382812 24.566406 20.949219 23.71875 21.511719 C 22.941406 22.234375 21.386719 22.574219 20.308594 22.957031 C 19.492188 23.484375 20.335938 24.609375 21.554688 24.667969 C 23.933594 24.621094 27.945312 23.765625 27.785156 21.585938 C 27.765625 18.292969 27.066406 15.011719 25.832031 11.957031 C 25.402344 12.085938 24.949219 12.15625 24.476562 12.15625 C 22.421875 12.15625 20.6875 10.832031 20.078125 8.984375 C 19.699219 8.898438 19.320312 8.824219 18.933594 8.765625 C 17.917969 8.589844 16.882812 8.507812 15.847656 8.511719 C 14.816406 8.507812 13.78125 8.589844 12.761719 8.765625 C 10.894531 9.046875 9.097656 9.691406 7.425781 10.558594 C 8.960938 9.253906 10.863281 8.460938 12.777344 7.902344 C 12.699219 7.835938 12.640625 7.675781 12.542969 7.65625 Z M 19.15625 7.65625 C 19.058594 7.675781 19 7.835938 18.917969 7.902344 C 19.246094 7.996094 19.574219 8.097656 19.894531 8.210938 C 19.871094 8.046875 19.855469 7.882812 19.847656 7.714844 C 19.621094 7.6875 19.386719 7.667969 19.15625 7.65625 Z M 11.363281 14.746094 C 12.609375 14.746094 13.613281 15.753906 13.613281 17.003906 C 13.613281 18.25 12.609375 19.253906 11.363281 19.253906 C 10.113281 19.253906 9.105469 18.25 9.105469 17.003906 C 9.105469 15.753906 10.113281 14.746094 11.363281 14.746094 Z M 20.378906 14.746094 C 21.628906 14.746094 22.632812 15.753906 22.632812 17.003906 C 22.632812 18.25 21.628906 19.253906 20.378906 19.253906 C 19.128906 19.253906 18.125 18.25 18.125 17.003906 C 18.125 15.753906 19.128906 14.746094 20.378906 14.746094 Z M 20.378906 14.746094 "/>
<path style=" stroke:none;fill-rule:nonzero;fill:rgb(93.333334%,93.333334%,93.333334%);fill-opacity:1;" d="M 24.476562 4.21875 C 26.300781 4.21875 27.785156 5.699219 27.785156 7.527344 C 27.785156 9.355469 26.300781 10.832031 24.476562 10.832031 C 22.648438 10.832031 21.167969 9.355469 21.167969 7.527344 C 21.167969 5.699219 22.648438 4.21875 24.476562 4.21875 Z M 24.476562 4.21875 "/>
</g>
</svg>

<svg xmlns="http://www.w3.org/2000/svg" width="32pt" height="32pt" viewBox="0 0 32 32"><g fill="#bdbdbd"><path d="M12.543 7.656c-2.066.102-4.117.903-5.723 2.188C5 13.473 3.937 17.516 3.914 21.586c-.164 2.18 3.848 3.035 6.23 3.086 1.215-.063 2.063-1.188 1.247-1.715-1.079-.383-2.637-.723-3.41-1.445-.848-.567-.567-1.13-.043-.907a15.203 15.203 0 0 0 7.89 2.313h.043a15.214 15.214 0 0 0 7.89-2.313c.52-.222.802.34-.042.907-.778.722-2.332 1.062-3.414 1.445-.813.527.03 1.652 1.25 1.715 2.379-.05 6.39-.906 6.23-3.086-.02-3.297-.719-6.574-1.953-9.629a4.7 4.7 0 0 1-1.355.2 4.62 4.62 0 0 1-4.399-3.173c-.379-.086-.758-.16-1.144-.218a17.718 17.718 0 0 0-3.086-.25 17.78 17.78 0 0 0-3.086.25c-1.864.28-3.664.93-5.336 1.793 1.535-1.305 3.437-2.098 5.351-2.657-.082-.066-.136-.226-.234-.246zm6.613 0c-.097.02-.156.18-.238.246.328.094.652.2.977.309a4.18 4.18 0 0 1-.043-.496 10.65 10.65 0 0 0-.696-.059zm-7.797 7.09A2.25 2.25 0 0 1 13.613 17a2.253 2.253 0 1 1-4.508 0 2.252 2.252 0 0 1 2.254-2.254zm9.02 0A2.25 2.25 0 0 1 22.633 17a2.25 2.25 0 0 1-2.254 2.258A2.25 2.25 0 0 1 18.125 17a2.25 2.25 0 0 1 2.254-2.254zm0 0"/><path d="M24.477 4.219a3.308 3.308 0 1 1 0 6.617 3.308 3.308 0 1 1 0-6.617zm0 0"/></g></svg>
